icons/notification-2-line.svg

<svg xmlns="http://www.w3.org/2000/svg" width="24" height="24" fill="none"><g clip-path="url(#a)"><g><path fill="#121212" d="M22 20H2V18H3V11.031C3 6.043 7.03 2 12 2C16.97 2 21 6.043 21 11.031V18H22V20ZM5 18H19V11.031C19 7.148 15.866 4 12 4C8.134 4 5 7.148 5 11.031V18ZM9.5 21H14.5C14.5 21.663 14.2366 22.2989 13.7678 22.7678C13.2989 23.2366 12.663 23.5 12 23.5C11.337 23.5 10.7011 23.2366 10.2322 22.7678C9.76339 22.2989 9.5 21.663 9.5 21Z"/></g></g><defs><clipPath id="a"><rect width="24" height="24" fill="white"/></clipPath></defs></svg>

<svg width="24" height="24" fill="none" xmlns="http://www.w3.org/2000/svg"><g clip-path="url(#a)"><path d="M22 20H2v-2h1v-6.969C3 6.043 7.03 2 12 2s9 4.043 9 9.031V18h1v2ZM5 18h14v-6.969C19 7.148 15.866 4 12 4s-7 3.148-7 7.031V18Zm4.5 3h5a2.5 2.5 0 0 1-5 0Z" /></g><defs><clipPath id="a"><path fill="#fff" d="M0 0h24v24H0z"/></clipPath></defs></svg>
